src/assets/images/matching_images/TreeColor.svg

<svg width="69" height="87" viewBox="0 0 69 87" fill="none" xmlns="http://www.w3.org/2000/svg">
<path d="M37.5551 3.75745C35.514 1.79421 32.2384 1.96375 30.3573 4.08074C13.7962 22.7185 -8.1701 45.4265 7.13896 68.39C25.3966 95.7762 54.0776 82.733 62.1693 68.39C72.4913 50.0936 67.0372 32.1153 37.5551 3.75745Z" fill="#FEFCEF"/>
<path d="M37.5551 3.75745C35.514 1.79421 32.2384 1.96375 30.3573 4.08074C13.7962 22.7185 -8.1701 45.4265 7.13896 68.39C25.3966 95.7762 54.0776 82.733 62.1693 68.39C72.4913 50.0936 67.0372 32.1153 37.5551 3.75745Z" stroke="black" stroke-width="3"/>
<path d="M37.5551 3.75745C35.514 1.79421 32.2384 1.96375 30.3573 4.08074C13.7962 22.7185 -8.1701 45.4265 7.13896 68.39C25.3966 95.7762 54.0776 82.733 62.1693 68.39C72.4913 50.0936 67.0372 32.1153 37.5551 3.75745Z" stroke="black" stroke-opacity="0.2" stroke-width="3"/>
<path d="M36.6479 3.9456C34.7997 1.79986 31.4566 1.96345 29.5822 4.08646C13.0839 22.7737 -8.38714 45.8429 7.52856 68.39C14.5538 78.3422 84.8058 69.8535 58.1681 58.145C-7.23957 29.3952 59.4972 30.4722 36.6479 3.9456Z" fill="#905C5C"/>
<path d="M36.6479 3.9456C34.7997 1.79986 31.4566 1.96345 29.5822 4.08646C13.0839 22.7737 -8.38714 45.8429 7.52856 68.39C14.5538 78.3422 84.8058 69.8535 58.1681 58.145C-7.23957 29.3952 59.4972 30.4722 36.6479 3.9456Z" stroke="black" stroke-width="3"/>
<path d="M36.6479 3.9456C34.7997 1.79986 31.4566 1.96345 29.5822 4.08646C13.0839 22.7737 -8.38714 45.8429 7.52856 68.39C14.5538 78.3422 84.8058 69.8535 58.1681 58.145C-7.23957 29.3952 59.4972 30.4722 36.6479 3.9456Z" stroke="black" stroke-opacity="0.2" stroke-width="3"/>
<path d="M67.139 51.3788C67.2136 46.2613 59.5142 46.9924 55.2189 49.7754C37.6824 61.1376 -4.8895 47.7083 6.35765 67.2193C24.1028 98.0027 54.2737 82.7331 62.3654 68.3901C65.836 62.2382 67.0654 56.4273 67.139 51.3788Z" fill="#F2CE6A"/>
<path d="M67.139 51.3788C67.2136 46.2613 59.5142 46.9924 55.2189 49.7754C37.6824 61.1376 -4.8895 47.7083 6.35765 67.2193C24.1028 98.0027 54.2737 82.7331 62.3654 68.3901C65.836 62.2382 67.0654 56.4273 67.139 51.3788Z" stroke="black" stroke-width="3"/>
<path d="M67.139 51.3788C67.2136 46.2613 59.5142 46.9924 55.2189 49.7754C37.6824 61.1376 -4.8895 47.7083 6.35765 67.2193C24.1028 98.0027 54.2737 82.7331 62.3654 68.3901C65.836 62.2382 67.0654 56.4273 67.139 51.3788Z" stroke="black" stroke-opacity="0.2" stroke-width="3"/>
<path d="M52.5699 32.0933C52.5699 32.3895 52.3934 32.8021 51.8975 33.1983C51.5464 33.479 51.1268 33.6718 50.7292 33.7595C50.7337 33.7283 50.7386 33.6957 50.7436 33.6615C50.7482 33.6305 50.7529 33.5984 50.7578 33.5649C50.8155 33.1724 50.8867 32.6558 50.8867 32.0933C50.8867 31.4447 50.7308 30.7515 50.5909 30.1982C50.5275 29.947 50.4677 29.7249 50.4121 29.5182C50.3694 29.3593 50.3291 29.2096 50.2915 29.0628C50.6193 29.2965 50.9662 29.6039 51.2958 29.9589C51.6992 30.3935 52.0401 30.8602 52.2715 31.2842C52.5195 31.7385 52.5699 32.0115 52.5699 32.0933ZM50.118 33.8039C50.1182 33.8038 50.1224 33.8044 50.1299 33.8062C50.1216 33.805 50.1178 33.8041 50.118 33.8039ZM50.6592 34.4085C50.6602 34.4162 50.6604 34.4204 50.6603 34.4206C50.6601 34.4208 50.6596 34.417 50.6592 34.4085Z" fill="#905C5C"/>
<path d="M52.5699 32.0933C52.5699 32.3895 52.3934 32.8021 51.8975 33.1983C51.5464 33.479 51.1268 33.6718 50.7292 33.7595C50.7337 33.7283 50.7386 33.6957 50.7436 33.6615C50.7482 33.6305 50.7529 33.5984 50.7578 33.5649C50.8155 33.1724 50.8867 32.6558 50.8867 32.0933C50.8867 31.4447 50.7308 30.7515 50.5909 30.1982C50.5275 29.947 50.4677 29.7249 50.4121 29.5182C50.3694 29.3593 50.3291 29.2096 50.2915 29.0628C50.6193 29.2965 50.9662 29.6039 51.2958 29.9589C51.6992 30.3935 52.0401 30.8602 52.2715 31.2842C52.5195 31.7385 52.5699 32.0115 52.5699 32.0933ZM50.118 33.8039C50.1182 33.8038 50.1224 33.8044 50.1299 33.8062C50.1216 33.805 50.1178 33.8041 50.118 33.8039ZM50.6592 34.4085C50.6602 34.4162 50.6604 34.4204 50.6603 34.4206C50.6601 34.4208 50.6596 34.417 50.6592 34.4085Z" stroke="black" stroke-width="3"/>
<path d="M52.5699 32.0933C52.5699 32.3895 52.3934 32.8021 51.8975 33.1983C51.5464 33.479 51.1268 33.6718 50.7292 33.7595C50.7337 33.7283 50.7386 33.6957 50.7436 33.6615C50.7482 33.6305 50.7529 33.5984 50.7578 33.5649C50.8155 33.1724 50.8867 32.6558 50.8867 32.0933C50.8867 31.4447 50.7308 30.7515 50.5909 30.1982C50.5275 29.947 50.4677 29.7249 50.4121 29.5182C50.3694 29.3593 50.3291 29.2096 50.2915 29.0628C50.6193 29.2965 50.9662 29.6039 51.2958 29.9589C51.6992 30.3935 52.0401 30.8602 52.2715 31.2842C52.5195 31.7385 52.5699 32.0115 52.5699 32.0933ZM50.118 33.8039C50.1182 33.8038 50.1224 33.8044 50.1299 33.8062C50.1216 33.805 50.1178 33.8041 50.118 33.8039ZM50.6592 34.4085C50.6602 34.4162 50.6604 34.4204 50.6603 34.4206C50.6601 34.4208 50.6596 34.417 50.6592 34.4085Z" stroke="black" stroke-opacity="0.2" stroke-width="3"/>
</svg>

<svg xmlns="http://www.w3.org/2000/svg" width="69" height="87" fill="none" viewBox="0 0 69 87"><path fill="#fefcef" d="M37.555 3.757c-2.041-1.963-5.317-1.793-7.198.324C13.797 22.719-8.17 45.427 7.14 68.39c18.258 27.386 46.939 14.343 55.03 0 10.322-18.296 4.868-36.275-24.614-64.633"/><path stroke="#000" stroke-width="3" d="M37.555 3.757c-2.041-1.963-5.317-1.793-7.198.324C13.797 22.719-8.17 45.427 7.14 68.39c18.258 27.386 46.939 14.343 55.03 0 10.322-18.296 4.868-36.275-24.614-64.633Z"/><path stroke="#000" stroke-opacity=".2" stroke-width="3" d="M37.555 3.757c-2.041-1.963-5.317-1.793-7.198.324C13.797 22.719-8.17 45.427 7.14 68.39c18.258 27.386 46.939 14.343 55.03 0 10.322-18.296 4.868-36.275-24.614-64.633Z"/><path fill="#905c5c" d="M36.648 3.946c-1.848-2.146-5.191-1.983-7.066.14C13.084 22.774-8.388 45.843 7.53 68.39c7.025 9.952 77.277 1.463 50.64-10.245-65.409-28.75 1.328-27.673-21.521-54.2"/><path stroke="#000" stroke-width="3" d="M36.648 3.946c-1.848-2.146-5.191-1.983-7.066.14C13.084 22.774-8.388 45.843 7.53 68.39c7.025 9.952 77.277 1.463 50.64-10.245-65.409-28.75 1.328-27.673-21.521-54.2Z"/><path stroke="#000" stroke-opacity=".2" stroke-width="3" d="M36.648 3.946c-1.848-2.146-5.191-1.983-7.066.14C13.084 22.774-8.388 45.843 7.53 68.39c7.025 9.952 77.277 1.463 50.64-10.245-65.409-28.75 1.328-27.673-21.521-54.2Z"/><path fill="#f2ce6a" d="M67.139 51.379c.075-5.118-7.625-4.387-11.92-1.604C37.682 61.138-4.89 47.708 6.358 67.22c17.745 30.784 47.916 15.514 56.007 1.171 3.471-6.152 4.7-11.963 4.774-17.011"/><path stroke="#000" stroke-width="3" d="M67.139 51.379c.075-5.118-7.625-4.387-11.92-1.604C37.682 61.138-4.89 47.708 6.358 67.22c17.745 30.784 47.916 15.514 56.007 1.171 3.471-6.152 4.7-11.963 4.774-17.011Z"/><path stroke="#000" stroke-opacity=".2" stroke-width="3" d="M67.139 51.379c.075-5.118-7.625-4.387-11.92-1.604C37.682 61.138-4.89 47.708 6.358 67.22c17.745 30.784 47.916 15.514 56.007 1.171 3.471-6.152 4.7-11.963 4.774-17.011Z"/><path fill="#905c5c" d="M52.57 32.093c0 .296-.177.71-.672 1.105a2.9 2.9 0 0 1-1.169.562l.015-.099.014-.096c.057-.393.129-.91.129-1.472 0-.648-.156-1.342-.296-1.895-.063-.251-.123-.473-.179-.68q-.065-.236-.12-.455c.327.234.674.54 1.004.896.403.434.744.901.976 1.325.248.454.298.727.298.81m-2.452 1.71.012.003zm.541.605"/><path stroke="#000" stroke-width="3" d="M52.57 32.093c0 .296-.177.71-.672 1.105a2.9 2.9 0 0 1-1.169.562l.015-.099.014-.096c.057-.393.129-.91.129-1.472 0-.648-.156-1.342-.296-1.895-.063-.251-.123-.473-.179-.68q-.065-.236-.12-.455c.327.234.674.54 1.004.896.403.434.744.901.976 1.325.248.454.298.727.298.81Zm-2.452 1.71.012.003zm.541.605Z"/><path stroke="#000" stroke-opacity=".2" stroke-width="3" d="M52.57 32.093c0 .296-.177.71-.672 1.105a2.9 2.9 0 0 1-1.169.562l.015-.099.014-.096c.057-.393.129-.91.129-1.472 0-.648-.156-1.342-.296-1.895-.063-.251-.123-.473-.179-.68q-.065-.236-.12-.455c.327.234.674.54 1.004.896.403.434.744.901.976 1.325.248.454.298.727.298.81Zm-2.452 1.71.012.003zm.541.605Z"/></svg>
